X:18678
T:Where Lilies Bloom
M:2/4
L:1/8
K:D Major
DF/A/ BA|d2 d3/c/|BA Bc|BA FA|!
DF/A/ BA|d2 dc/|BA Bc|[1 ed d2:|[2 ed de|]!
f2 e2|d2 d3/c/|BA Bc|BA FA|!
f2 e2|d2 d3/c/|BA Bc|[1 ed de:|[2 ed d2|]!


